X:1
T:Danny Ab's
R:slide
M:12/8
L:1/8
K:G
|:B2B cBc d2B d2e| dBG dBG ABc AGA|
|B2B cBc d2B d2g|1 fed cBA G3 G2A:|2 fed cBA G3 G2f|]
|:g2d B2g f2e c3|ded c2A ded B2f|
|g2d B2g f2e c2B|1 ABc def g3 g2f:|2 ABc def g3 g2A|]